priv/static/svgs/icons_new/generic-multi-bet.svg

<svg width="32" height="32" viewBox="0 0 32 32" fill="none" xmlns="http://www.w3.org/2000/svg">
<path d="M21.6385 24.8427C21.5592 25.9391 21.4489 27.0242 21.3012 28.0785C21.2653 28.3347 20.9551 28.4472 20.7549 28.2789L19.2695 27.0306C19.0302 26.8294 18.6804 26.8182 18.4282 27.0037L16.5728 28.3681C16.3336 28.544 16.0048 28.544 15.7656 28.3681L13.8821 26.9831C13.6429 26.8072 13.3141 26.8072 13.0749 26.9831L11.1914 28.3681C10.9523 28.544 10.6234 28.544 10.3842 28.3681L8.52885 27.0037C8.27662 26.8182 7.92686 26.8294 7.68748 27.0306L6.19546 28.2845C5.99662 28.4516 5.68843 28.3418 5.6488 28.088C4.57973 21.2416 5.04285 14.564 5.54223 10.5194C5.64822 9.661 6.33554 8.99063 7.21265 8.90061C7.66208 8.85448 8.11945 8.81551 8.58173 8.78298M13.2887 8.35004H18.3337M13.2887 12.3072H24.0514M13.2887 16.2644H24.0514M7.67517 19.82H9.81697M7.67517 15.8446H9.81697M24.8073 3.78274C21.7172 3.52601 16.698 3.31435 12.4042 3.75503C11.5271 3.84505 10.8398 4.51542 10.7338 5.37383C10.2344 9.41842 9.77127 16.096 10.8403 22.9424C10.88 23.1963 11.1882 23.306 11.387 23.1389L12.879 21.885C13.1184 21.6838 13.4682 21.6727 13.7204 21.8581L15.5758 23.2225C15.815 23.3984 16.1438 23.3984 16.383 23.2225L18.2665 21.8375C18.5056 21.6616 18.8345 21.6616 19.0737 21.8375L20.9571 23.2225C21.1963 23.3984 21.5252 23.3984 21.7643 23.2225L23.6197 21.8581C23.872 21.6727 24.2217 21.6838 24.4611 21.885L25.9464 23.1333C26.1467 23.3016 26.4568 23.1892 26.4927 22.9329C27.3346 16.9223 26.9623 9.91266 26.5636 5.50226C26.4806 4.58357 25.7446 3.86061 24.8073 3.78274Z" stroke="black" stroke-linecap="round"/>
</svg>

<svg width="32" height="32" viewBox="0 0 32 32" fill="none" xmlns="http://www.w3.org/2000/svg">
  <symbol id="item" viewBox="0 0 32 32" stroke-width="1" fill="none">
    <path d="M21.639 24.843a48.743 48.743 0 0 1-.338 3.235c-.036.257-.346.37-.546.2l-1.485-1.247a.683.683 0 0 0-.842-.027l-1.855 1.364a.683.683 0 0 1-.807 0l-1.884-1.385a.683.683 0 0 0-.807 0l-1.884 1.385a.683.683 0 0 1-.807 0L8.53 27.004a.683.683 0 0 0-.842.027l-1.492 1.254c-.198.167-.507.057-.546-.197-1.07-6.846-.606-13.524-.107-17.569a1.861 1.861 0 0 1 1.67-1.618c.45-.047.907-.085 1.37-.118m4.707-.433h5.045m-5.045 3.957H24.05M13.29 16.264H24.05M7.675 19.82h2.142m-2.142-3.975h2.142m14.99-12.062c-3.09-.257-8.109-.469-12.403-.028-.877.09-1.564.76-1.67 1.619-.5 4.044-.963 10.722.106 17.568.04.254.348.364.547.197l1.492-1.254a.683.683 0 0 1 .841-.027l1.856 1.364c.239.176.568.176.807 0l1.884-1.385a.683.683 0 0 1 .807 0l1.883 1.386c.24.175.568.175.807 0l1.856-1.365a.683.683 0 0 1 .841.027l1.485 1.248c.2.169.51.056.547-.2.842-6.01.47-13.02.07-17.43a1.905 1.905 0 0 0-1.756-1.72Z" stroke="currentColor" stroke-linecap="round"/>
  </symbol>
</svg>
